X:17
M:4/4
L:1/8
Q:"Moderato  "3/8=100
K:Bb
!p!C|G2 A B2 c|(d>=ef) F2 F|\
(G>AB/c/) d>cB/A/|!diminuendo(!(G3 d2)!diminuendo)! !mf!D|
(G>AB/c/) d>cB/A/|!diminuendo(!(G3 [d2B2G2])!diminuendo)!||
([DB]>[ec][fd]) ([ge]>[fd][ec])|([d3B3] f2) !mf!f|
([BFD]>c[BFD]) [B2G2E] B|([cAF]df) H[g2e2B2]([f/A/]e/)|\
([dB]>cB) [AEC]>G[^FC]|!diminuendo(!([G3B,3] d2)!diminuendo)!||

